X: 7906
T: Con Tadhgo's
R: jig
M: 6/8
K: Dmajor
|:AFE ~F2E|~F2E EDE|AFE ~F2E|EDC D2B|
[1 AFE ~F2E|~F2E EDE|AFE ~F2E|EDC D2B:|
[2 AFE ~F2A|~E3 DdB|AFE EFE|EDC D2B||
|:A2d dcd|~e3 fdB|~A3 dAA|BAF EFG|
A2d dcd|e/f/ge fdB|AFE ~F2E|EDC D2B:|

